Simply-White-Circles/scalable/apps/haguichi.svg

<svg xmlns="http://www.w3.org/2000/svg" width="48" height="48" viewBox="0 0 12.7 12.7"><path d="M6.34.07a6.29 6.29 0 0 0-6.29 6.3 6.29 6.29 0 0 0 6.3 6.28 6.29 6.29 0 0 0 6.28-6.29A6.29 6.29 0 0 0 6.34.07zm-.01.94a5.4 5.4 0 0 1 5.4 5.4 5.4 5.4 0 0 1-5.4 5.41 5.4 5.4 0 0 1-5.41-5.4A5.4 5.4 0 0 1 6.32 1z" fill="#e6e6e6"/><path d="M8.36 2.4a1.52 1.52 0 0 0-1.52 1.5 1.52 1.52 0 0 0 .01.19l-2.5 1.25a1.52 1.52 0 0 0-1.06-.43 1.52 1.52 0 0 0-1.52 1.52A1.52 1.52 0 0 0 3.3 7.96a1.52 1.52 0 0 0 1.06-.42l2.5 1.25a1.52 1.52 0 0 0-.01.19 1.52 1.52 0 0 0 1.52 1.52 1.52 1.52 0 0 0 1.52-1.52 1.52 1.52 0 0 0-1.52-1.52 1.52 1.52 0 0 0-1.06.42L4.8 6.63a1.52 1.52 0 0 0 .01-.19 1.52 1.52 0 0 0-.01-.18L7.3 5a1.52 1.52 0 0 0 1.06.43 1.52 1.52 0 0 0 1.52-1.52 1.52 1.52 0 0 0-1.52-1.52z" fill="#d40000" opacity=".75"/></svg>

<?xml version="1.0" encoding="UTF-8" standalone="no"?>
<svg
   xmlns:dc="http://purl.org/dc/elements/1.1/"
   xmlns:cc="http://creativecommons.org/ns#"
   xmlns:rdf="http://www.w3.org/1999/02/22-rdf-syntax-ns#"
   xmlns:svg="http://www.w3.org/2000/svg"
   xmlns="http://www.w3.org/2000/svg"
   xmlns:sodipodi="http://sodipodi.sourceforge.net/DTD/sodipodi-0.dtd"
   xmlns:inkscape="http://www.inkscape.org/namespaces/inkscape"
   width="48"
   height="48"
   viewBox="0 0 12.7 12.7"
   version="1.1"
   id="svg6"
   sodipodi:docname="haguichi.svg"
   inkscape:version="0.92.4 (5da689c313, 2019-01-14)">
  <metadata
     id="metadata12">
    <rdf:RDF>
      <cc:Work
         rdf:about="">
        <dc:format>image/svg+xml</dc:format>
        <dc:type
           rdf:resource="http://purl.org/dc/dcmitype/StillImage" />
        <dc:title></dc:title>
      </cc:Work>
    </rdf:RDF>
  </metadata>
  <defs
     id="defs10" />
  <sodipodi:namedview
     pagecolor="#ffffff"
     bordercolor="#666666"
     borderopacity="1"
     objecttolerance="10"
     gridtolerance="10"
     guidetolerance="10"
     inkscape:pageopacity="0"
     inkscape:pageshadow="2"
     inkscape:window-width="1087"
     inkscape:window-height="480"
     id="namedview8"
     showgrid="false"
     inkscape:zoom="4.9166667"
     inkscape:cx="2.1355932"
     inkscape:cy="24"
     inkscape:window-x="0"
     inkscape:window-y="25"
     inkscape:window-maximized="0"
     inkscape:current-layer="svg6" />
  <path
     d="M 6.34,0.07 A 6.29,6.29 0 0 0 0.05,6.37 6.29,6.29 0 0 0 6.35,12.65 6.29,6.29 0 0 0 12.63,6.36 6.29,6.29 0 0 0 6.34,0.07 Z M 6.33,1.01 a 5.4,5.4 0 0 1 5.4,5.4 5.4,5.4 0 0 1 -5.4,5.41 A 5.4,5.4 0 0 1 0.92,6.42 5.4,5.4 0 0 1 6.32,1 Z"
     id="path2"
     inkscape:connector-curvature="0"
     style="fill:#e6e6e6" />
  <path
     d="M 8.36,2.4 A 1.52,1.52 0 0 0 6.84,3.9 1.52,1.52 0 0 0 6.85,4.09 L 4.35,5.34 A 1.52,1.52 0 0 0 3.29,4.91 1.52,1.52 0 0 0 1.77,6.43 1.52,1.52 0 0 0 3.3,7.96 1.52,1.52 0 0 0 4.36,7.54 l 2.5,1.25 A 1.52,1.52 0 0 0 6.85,8.98 1.52,1.52 0 0 0 8.37,10.5 1.52,1.52 0 0 0 9.89,8.98 1.52,1.52 0 0 0 8.37,7.46 1.52,1.52 0 0 0 7.31,7.88 L 4.8,6.63 A 1.52,1.52 0 0 0 4.81,6.44 1.52,1.52 0 0 0 4.8,6.26 L 7.3,5 A 1.52,1.52 0 0 0 8.36,5.43 1.52,1.52 0 0 0 9.88,3.91 1.52,1.52 0 0 0 8.36,2.39 Z"
     id="path4"
     inkscape:connector-curvature="0"
     style="opacity:0.75;fill:#d40000" />
</svg>
